X:100
T:T061F- Yellow Stockings (The Kitten in OFPC)
S:O'Farrell's National Irish Music
Q:1/4=120
L:1/8
M:9/8
K:Dmixolydian
D|G2B GEE GEE|G2B GEE FED|G2B GEE GEE|FGA ABG FED||\
G2c BGd BGd|G2 c BGd cBA|G2c BGd BGd|ecA ABG FED||\
B/c/BA GEE GEE|B/c/BA GEE FED|B/c/BA GEE GEE|FGA ABG FED|]

